package/converter/svg/regular/message-text.svg

<svg xmlns="http://www.w3.org/2000/svg" viewBox="0 0 512 512"><!-- Font Awesome Pro 6.0.0-alpha2 by @fontawesome - https://fontawesome.com License - https://fontawesome.com/license (Commercial License) --><path d="M344 112H168C154.75 112 144 122.75 144 136S154.75 160 168 160H232V296C232 309.25 242.75 320 256 320S280 309.25 280 296V160H344C357.25 160 368 149.25 368 136S357.25 112 344 112ZM448 0H64C28.75 0 0 28.75 0 64V352.002C0 387.252 28.75 416.002 64 416.002H160V500.002C160 509.838 171.023 515.479 179.125 509.627L304 416.002H448C483.25 416.002 512 387.252 512 352.002V64C512 28.75 483.25 0 448 0ZM464 352.002C464 360.752 456.75 368.002 448 368.002H288L208 428.002V368.002H64C55.25 368.002 48 360.752 48 352.002V64C48 55.25 55.25 48 64 48H448C456.75 48 464 55.25 464 64V352.002Z"/></svg>

<svg xmlns="http://www.w3.org/2000/svg" viewBox="0 0 512 512"><!--! Font Awesome Pro 6.6.0 by @fontawesome - https://fontawesome.com License - https://fontawesome.com/license (Commercial License) Copyright 2024 Fonticons, Inc. --><path d="M208 416c0-26.5-21.5-48-48-48l-96 0c-8.8 0-16-7.2-16-16L48 64c0-8.8 7.2-16 16-16l384 0c8.8 0 16 7.2 16 16l0 288c0 8.8-7.2 16-16 16l-138.7 0c-10.4 0-20.5 3.4-28.8 9.6L208 432l0-16zm-.2 76.2l.2-.2 101.3-76L448 416c35.3 0 64-28.7 64-64l0-288c0-35.3-28.7-64-64-64L64 0C28.7 0 0 28.7 0 64L0 352c0 35.3 28.7 64 64 64l48 0 48 0 0 48 0 4 0 .3 0 6.4 0 21.3c0 6.1 3.4 11.6 8.8 14.3s11.9 2.1 16.8-1.5L202.7 496l5.1-3.8zM168 112c-13.3 0-24 10.7-24 24s10.7 24 24 24l64 0 0 136c0 13.3 10.7 24 24 24s24-10.7 24-24l0-136 64 0c13.3 0 24-10.7 24-24s-10.7-24-24-24l-88 0-88 0z"/></svg>
